packages/icons/src/explode.svg

<svg viewBox="0 0 16 16" fill="currentColor" xmlns="http://www.w3.org/2000/svg">
<path d="M10.9842 4.81624L12.4895 1.02563L8.45406 1.61731L9.5 2.93974L4.90392 6.5749C4.77727 6.46512 4.63852 6.3746 4.4919 6.30381C4.43555 6.2765 4.37763 6.25191 4.31831 6.23023C4.27936 6.21598 4.2398 6.20299 4.19969 6.1913C4.02673 6.14085 3.8487 6.11601 3.67122 6.11615C3.47497 6.11604 3.27803 6.14646 3.08804 6.2083C3.04931 6.22091 3.01087 6.23482 2.97279 6.25004C2.93259 6.2661 2.89307 6.28351 2.8543 6.30221C2.66697 6.39219 2.49243 6.51435 2.33946 6.66765C2.18701 6.81968 2.06533 6.99304 1.97544 7.17908C1.97301 7.18413 1.97059 7.18919 1.9682 7.19426C1.84683 7.45023 1.78742 7.72564 1.78756 7.99972C1.78741 8.17533 1.81171 8.35149 1.86109 8.52274C1.87603 8.57457 1.89328 8.62595 1.91283 8.67673C1.93133 8.72476 1.95173 8.77185 1.97396 8.81789C2.08324 9.04514 2.23989 9.25357 2.44207 9.42744C2.56533 9.5337 2.70251 9.62426 2.85049 9.69602C2.9068 9.72333 2.96467 9.74791 3.02394 9.76961C3.06306 9.78393 3.1028 9.79698 3.14309 9.80873C3.31617 9.85923 3.49434 9.88407 3.67193 9.88391C3.84816 9.88398 4.02494 9.85944 4.19674 9.80963C4.24769 9.79486 4.29821 9.77787 4.34814 9.75863C4.39636 9.74007 4.44363 9.71957 4.48984 9.69725C4.63723 9.62631 4.77668 9.53545 4.90392 9.42517L9.5 13.0603L8.45406 14.3828L12.4895 14.9744L10.9842 11.1838L9.93823 12.5063L5.34224 8.87117C5.35081 8.85471 5.35913 8.83813 5.3672 8.82146C5.39385 8.76653 5.41792 8.71011 5.43924 8.65236C5.45011 8.6229 5.46027 8.5931 5.46969 8.56298C5.49132 8.49382 5.50882 8.42379 5.52222 8.35324H10.6805V10.0393L14.2126 8.00003L10.6805 5.96075V7.64682H5.52222C5.50851 7.57464 5.49052 7.50301 5.46819 7.4323C5.46001 7.4064 5.45125 7.38062 5.4419 7.35498C5.41991 7.29463 5.39492 7.23572 5.36711 7.17844C5.35907 7.16182 5.35079 7.1453 5.34224 7.12889L9.93823 3.49381L10.9842 4.81624Z" fill="currentColor"/>
</svg>

<svg xmlns="http://www.w3.org/2000/svg" fill="currentColor" viewBox="0 0 16 16"><path d="m10.984 4.816 1.505-3.79-4.035.591L9.5 2.94 4.904 6.575a1.87 1.87 0 0 0-1.233-.459A1.88 1.88 0 0 0 1.788 8a1.882 1.882 0 0 0 3.116 1.425L9.5 13.06l-1.046 1.323 4.035.591-1.505-3.79-1.046 1.322-4.596-3.635a1.906 1.906 0 0 0 .18-.518h5.159v1.686L14.213 8 10.68 5.96v1.687H5.522a1.873 1.873 0 0 0-.18-.518l4.596-3.635 1.046 1.322Z"/></svg>
